X:017 
T:Biddy the Darling (slide)
S:Tom Barrett
F:file ID: cre.5/017biddy
B:CRE5.068 (BidÃÂÃÂÃÂÃÂ­ an MuirnÃÂÃÂÃÂÃÂ­n)
Q:180
M:12/8
R:slide
K:D
A|D2F A2d f2d A2F|G2B e2d cBA GFE|
D2F A2d f2d A2F|1 Ged cBc d3 d2:|
[2 Ged cBc d3 dcB ||
|:A2c e2c A2d f2d|A2e g2e fed cBA|
d2A e2A f2A g2A|1 fed cBc d3 dcB:|
[2 fed cBc d3 Hd3|]

%%%

